svg/building/hotel_line.svg

<svg xmlns="http://www.w3.org/2000/svg" width="24" height="24" viewBox="0 0 24 24"><g fill="none" fill-rule="evenodd"><path d="M24,0 L24,24 L0,24 L0,0 L24,0 Z M12.5935,23.2578 L12.5819,23.2595 L12.5109,23.295 L12.4919,23.2987 L12.4767,23.295 L12.4057,23.2595 C12.3958,23.2564 12.387,23.259 12.3821,23.2649 L12.378,23.2758 L12.3609,23.7031 L12.3659,23.7235 L12.3769,23.7357 L12.4805,23.8097 L12.4953,23.8136 L12.5071,23.8097 L12.6107,23.7357 L12.6233,23.7197 L12.6267,23.7031 L12.6096,23.2758 C12.6076,23.2657 12.601,23.2593 12.5935,23.2578 Z M12.8584,23.1453 L12.8445,23.1473 L12.6598,23.2397 L12.6499,23.2499 L12.6472,23.2611 L12.6651,23.6906 L12.6699,23.7034 L12.6784,23.7105 L12.8793,23.8032 C12.8914,23.8069 12.9022,23.803 12.9078,23.7952 L12.9118,23.7812 L12.8777,23.1665 C12.8753,23.1546 12.8674,23.147 12.8584,23.1453 Z M12.143,23.1473 C12.1332,23.1424 12.1222,23.1453 12.1156,23.1526 L12.1099,23.1665 L12.0758,23.7812 C12.0751,23.7927 12.0828,23.8019 12.0926,23.8046 L12.1083,23.8032 L12.3092,23.7105 L12.3186,23.7024 L12.3225,23.6906 L12.3404,23.2611 L12.3372,23.2485 L12.3278,23.2397 L12.143,23.1473 Z"/><path fill="#09244B" d="M5,5 C5,3.89543 5.89543,3 7,3 L17,3 C18.1046,3 19,3.89543 19,5 L19,6 L20,6 C20.5523,6 21,6.44772 21,7 C21,7.55228 20.5523,8 20,8 L20,19 C20.5523,19 21,19.4477 21,20 C21,20.5523 20.5523,21 20,21 L4,21 C3.44772,21 3,20.5523 3,20 C3,19.4477 3.44772,19 4,19 L4,8 C3.44772,8 3,7.55228 3,7 C3,6.44772 3.44772,6 4,6 L5,6 L5,5 Z M17,5 L17,6 L7,6 L7,5 L17,5 Z M18,8 L18,19 L14.5,19 L14.5,16.5 C14.5,15.1193 13.3807,14 12,14 C10.6193,14 9.5,15.1193 9.5,16.5 L9.5,19 L6,19 L6,8 L18,8 Z M12,16 C12.2761,16 12.5,16.2239 12.5,16.5 L12.5,19 L11.5,19 L11.5,16.5 C11.5,16.2239 11.7239,16 12,16 Z M8,13 C8.55228,13 9,13.4477 9,14 L9,15 C9,15.5523 8.55228,16 8,16 C7.44772,16 7,15.5523 7,15 L7,14 C7,13.4477 7.44772,13 8,13 Z M16,13 C16.51285,13 16.9355092,13.386027 16.9932725,13.8833761 L17,14 L17,15 C17,15.5523 16.5523,16 16,16 C15.48715,16 15.0644908,15.613973 15.0067275,15.1166239 L15,15 L15,14 C15,13.4477 15.4477,13 16,13 Z M8,9 C8.51283143,9 8.93550653,9.38604429 8.9932722,9.88337975 L9,10 L9,11 C9,11.5523 8.55228,12 8,12 C7.48716857,12 7.06449347,11.613973 7.0067278,11.1166239 L7,11 L7,10 C7,9.44772 7.44772,9 8,9 Z M12,9 C12.51285,9 12.9355092,9.38604429 12.9932725,9.88337975 L13,10 L13,11 C13,11.5523 12.5523,12 12,12 C11.48715,12 11.0644908,11.613973 11.0067275,11.1166239 L11,11 L11,10 C11,9.44772 11.4477,9 12,9 Z M16,9 C16.5523,9 17,9.44772 17,10 L17,11 C17,11.5523 16.5523,12 16,12 C15.4477,12 15,11.5523 15,11 L15,10 C15,9.44772 15.4477,9 16,9 Z"/></g></svg>

<svg xmlns="http://www.w3.org/2000/svg" width="24" height="24"><g fill="none" fill-rule="evenodd"><path d="M24 0v24H0V0zM12.594 23.258l-.012.002-.071.035-.02.004-.014-.004-.071-.036c-.01-.003-.019 0-.024.006l-.004.01-.017.428.005.02.01.013.104.074.015.004.012-.004.104-.074.012-.016.004-.017-.017-.427c-.002-.01-.009-.017-.016-.018m.264-.113-.014.002-.184.093-.01.01-.003.011.018.43.005.012.008.008.201.092c.012.004.023 0 .029-.008l.004-.014-.034-.614c-.003-.012-.01-.02-.02-.022m-.715.002a.023.023 0 0 0-.027.006l-.006.014-.034.614c0 .012.007.02.017.024l.015-.002.201-.093.01-.008.003-.011.018-.43-.003-.012-.01-.01z"/><path fill="#09244B" d="M5 5a2 2 0 0 1 2-2h10a2 2 0 0 1 2 2v1h1a1 1 0 1 1 0 2v11a1 1 0 1 1 0 2H4a1 1 0 1 1 0-2V8a1 1 0 0 1 0-2h1zm12 0v1H7V5zm1 3v11h-3.5v-2.5a2.5 2.5 0 0 0-5 0V19H6V8zm-6 8a.5.5 0 0 1 .5.5V19h-1v-2.5a.5.5 0 0 1 .5-.5m-4-3a1 1 0 0 1 1 1v1a1 1 0 1 1-2 0v-1a1 1 0 0 1 1-1m8 0a1 1 0 0 1 .993.883L17 14v1a1 1 0 0 1-1.993.117L15 15v-1a1 1 0 0 1 1-1M8 9a1 1 0 0 1 .993.883L9 10v1a1 1 0 0 1-1.993.117L7 11v-1a1 1 0 0 1 1-1m4 0a1 1 0 0 1 .993.883L13 10v1a1 1 0 0 1-1.993.117L11 11v-1a1 1 0 0 1 1-1m4 0a1 1 0 0 1 1 1v1a1 1 0 1 1-2 0v-1a1 1 0 0 1 1-1"/></g></svg>
